X:130
T: I Ne'er Shall Wean Her
T: N\'i Choiscfidh m\'e cho\'iche den Deol \'i
S: B.Breathnach: "Ceol Rince na hEireann" II/30
Z: B.Black
L: 1/8
M: 6/8
R: jig
K: Ador
G|EGG G2D|EGG c2G|BAA AGA|cde e2d|
cde g2a|ged c2d|eaa e2d|cAA A2 :|
d|egg ged|egg g2d|eaa aga|baa a2B|
cde g2a|ged c2d|eaa e2d|cAA A2 :|

